!!!OTL: 598. Jaegerlied.
!!!COM: C. M. J. Kiefer
!!!ARE: Europa, Mitteleuropa, Deutschland
!!!SCT: B0598
!!!TXL: @@DE
!!!YEM: Copyright 1995, estate of Helmut Schaffrath.
**kern	**text
*ICvox	*
*Ivox	*
*clefG2	*
*M3/4	*
*k[]	*
*C:	*
=1	=1
!LO:TX:a:t=Fro. (Alle Refr.)	!
{8.g^	Heil
16f	dem
8e	Man-
8g	-ne,
8cc	der
8e	den
=2	=2
8.g	grü-
16a	-nen
4g	Hain
8r}	.
{8g	des
=3	=3
8f	Va-
8e	-ter-
8d	-lan-
8a	-des
8g	ſich
8f	ʒur
=4	=4
8e	Hei-
8d	-math
8e	aus-
8f	-er-
8g	-wäh-
8e}	-let,
=5	=5
{8.g^	den
16f	die
8e	Frei-
8g	-heit
8cc	und
8b	der
=6	=6
8.b	gold-
16a	-ne
4a	Wein
8r}	.
{8a	mit
=7	=7
8.g	Lie-
16a	-be,
8g	Muth
8a	und
8b	Fröh-
8cc	-lich-
=8	=8
8dd	-keit
8b	be-
4dd	-ſee-
8cc	-let.
8r;}	.
=9||	=9||
!LO:TX:a:t=Einzelne.	!
{8.g	Lobt
16f	man
8e	doch
8g	das
8cc	Glück
8e	der
=10	=10
8.g	al
16a	ten
4g	Ʒeit,
4r}	.
=11	=11
{8f	da
8e	die
8d	Vä-
8a	-ter
8g	ſtil-
8f	-le
=12	=12
8e	in
8d	den
8e	Wäldern
8f	.
8g	leb-
8e}	-ten,
=13	=13
{8.g^	und
16f	durch
8e	Lie-
8g	-derſinn
8cc	.
8b	und
=14	=14
8.b	Ta-
16a	-pfer-
4a	-keit
4r}	.
=15	=15
{8.g	nach
16a	dem
8g	himmliſchen
8a	.
8b	.
8cc	Wal-
=16	=16
8dd	-hal-
8b	-la
4dd^	ſtrebten.
8cc	.
8r}	.
=17||	=17||
{8.ee	Drum
16ee	ſoll
8.ee	uns
16dd	der
8cc	Ah-
8a	-nen
=18	=18
8.dd	Bei-
16dd	-ſpiel
8.dd	ſtets
16cc	er-
8b	-wah-
8g}	-nen
=19	=19
{8g	in
8a	den
8b	deutſchen
8cc	.
8dd	For-
8b	-ſten
=20	=20
8ee	wie
8dd	der
8cc	Aar
8b	ʒu
!LO:TX:a:t=Von vorn.	!
8a	hor-
8g}	-ſten.
=21	=21
{8.g^	Heil
16f	dem
8e	Man-
8g	-ne,
8cc	der
8e	den
=22	=22
8.g	grü-
16a	-nen
4g	Hain
8r}	.
{8g	des
=23	=23
8f	Va-
8e	-ter-
8d	-lan-
8a	-des
8g	ſich
8f	ʒur
=24	=24
8e	Hei-
8d	-math
8e	aus-
8f	-er-
8g	-wäh-
8e}	-let,
=25	=25
{8.g^	den
16f	die
8e	Frei-
8g	-heit
8cc	und
8b	der
=26	=26
8.b	gold-
16a	-ne
4a	Wein
8r}	.
{8a	mit
=27	=27
8.g	Lie-
16a	-be,
8g	Muth
8a	und
8b	Fröh-
8cc	-lich-
=28	=28
8dd	-keit
8b	be-
4dd	-ſee-
8cc	-let.
8r;}	.
==	==
!!!AGN: Staende -, Jaeger - Lied
!!!GTL: Jֳ₪gerlieder
!!!ONB: ESAC (Essen Associative Code) Database: BOEHME
!!!AMT: simple triple
!!!AIN: vox
!!!EED: Helmut Schaffrath
!!!EEV: 1.0
!!Mel. v. C. M. J. Kiefer. 1627 in Serigs Auswahl. Fink 491.
!!@@COMMENT:"Gedicht von Heinrich Kiefer, weiland. Burֵ¿ch in Halle."
!!@@END:
!!!Text: H. Kiefer
!!!URL-scan: https://archive.org/details/BoehmeVtLieder1895/page/n473/mode/2up
!!!ENC: Anna Maria Matuszewska
!!!EEV: 2024/15/07
*-	*-
